MA4T1/111/aimg/azul-h.svg

<svg clip-rule="evenodd" fill-rule="evenodd" stroke-linejoin="round" stroke-miterlimit="2" viewBox="0 0 180 42" xmlns="http://www.w3.org/2000/svg"><g fill-rule="nonzero"><path d="m0 2.762c.526.222.948.421 1.385.578.356.127.525-.075.525-.416 0-.194-.033-.394-.085-.582-.208-.765-.378-.816-1.031-.302-.244.192-.461.417-.794.722m4.145-3.422c-.636.459-1.179.843-1.714 1.238-.337.249-.347.522-.193.931.219.582.321 1.215.42 1.835.111.695.356.936 1.097.952.692.014.912-.154.977-.9.116-1.314.085-2.618-.587-4.056m1.25 4.815c2.085.058 4.071.178 6.055.152 2.348-.029 4.698-.316 7.042-.253 3.628.097 7.24-.156 10.86-.234 1.046-.022 1.425-.375 1.253-1.401-.163-.974-.479-1.928-.787-2.872-.219-.668-.737-1.025-1.456-1.042-1.113-.025-2.229-.084-3.341-.055-1.553.041-3.104.141-4.655.231-4.613.27-9.224.547-13.836.823-.279.016-.555.06-.834.072-.444.019-.551.275-.438.645.384 1.25.239 2.521.137 3.934m-2.511.842c-1.156-.595-2.325-1.166-3.461-1.798-.482-.268-.508-.498-.138-.815 1.204-1.035 2.421-2.058 3.676-3.029.322-.248.801-.38 1.217-.403 3.38-.192 6.763-.345 10.145-.51.199-.01.398-.027.597-.041 3.218-.228 6.434-.485 9.655-.668 1.349-.077 2.706-.007 4.059.014.597.01 1.101.287 1.407.785.331.538.64 1.11.83 1.709.239.757.378 1.55.505 2.337.158.971-.273 1.622-1.241 1.857-.459.112-.947.118-1.423.14-1.949.09-3.905.309-5.847.222-4.191-.186-8.358.309-12.54.281-2.148-.015-4.296-.022-6.444-.045-.316-.004-.631-.079-.946-.12-.017.028-.034.056-.051.084" fill="#231f20" transform="matrix(5.55556 0 0 5.55556 5.37197476 12.74848348)"/><path d="m0 5.556c.102-1.413.247-2.684-.136-3.934-.114-.37-.006-.626.438-.645.278-.012.555-.056.833-.072 4.612-.276 9.224-.553 13.836-.823 1.551-.09 3.103-.19 4.655-.231 1.113-.029 2.228.03 3.342.055.718.017 1.237.374 1.455 1.042.309.943.625 1.898.788 2.872.172 1.026-.208 1.379-1.254 1.401-3.62.078-7.232.331-10.86.233-2.343-.063-4.693.225-7.041.254-1.984.026-3.97-.094-6.056-.152" fill="#1375bc" transform="matrix(5.55556 0 0 5.55556 35.34422096 4.96514392)"/><path d="m0-4.971c.672 1.438.703 2.743.587 4.057-.066.746-.285.914-.977.899-.741-.016-.986-.256-1.097-.952-.099-.62-.201-1.253-.42-1.835-.154-.409-.144-.681.193-.93.535-.395 1.078-.78 1.714-1.239" fill="#ffe5a6" transform="matrix(5.55556 0 0 5.55556 28.39977096 36.69850264)"/><path d="m0 .531c.333-.305.55-.53.794-.722.653-.514.823-.463 1.031.302.052.188.085.388.085.582 0 .341-.169.543-.525.416-.437-.157-.859-.356-1.385-.578" fill="#1375bc" transform="matrix(5.55556 0 0 5.55556 5.37197476 25.14293784)"/><path d="m0 2.814c-3.268.003-6.536-.361-9.722-1.085.426.131.885.044 1.322-.042 1.999-.398 4.005-.772 6-1.196.681-.144 1.302-.494 1.879.008.229.2.544 2.315.521 2.315" fill="#fff" transform="matrix(5.55556 0 0 5.55556 171.28877416 16.43737532)"/></g></svg>

<?xml version="1.0" encoding="UTF-8" standalone="no"?>
<!DOCTYPE svg PUBLIC "-//W3C//DTD SVG 1.1//EN" "http://www.w3.org/Graphics/SVG/1.1/DTD/svg11.dtd">
<svg width="100%" height="100%" viewBox="0 0 180 42" version="1.1" xmlns="http://www.w3.org/2000/svg" xmlns:xlink="http://www.w3.org/1999/xlink" xml:space="preserve" xmlns:serif="http://www.serif.com/" style="fill-rule:evenodd;clip-rule:evenodd;stroke-linejoin:round;stroke-miterlimit:2;">
    <g transform="matrix(1,0,0,1,-8337.96,-11825.2)">
        <g transform="matrix(5.55556,0,0,5.55556,7263.77,9566.93)">
            <g transform="matrix(1,0,0,1,194.321,408.783)">
                <path d="M0,2.762C0.526,2.984 0.948,3.183 1.385,3.34C1.741,3.467 1.91,3.265 1.91,2.924C1.91,2.73 1.877,2.53 1.825,2.342C1.617,1.577 1.447,1.526 0.794,2.04C0.55,2.232 0.333,2.457 0,2.762M4.145,-0.66C3.509,-0.201 2.966,0.183 2.431,0.578C2.094,0.827 2.084,1.1 2.238,1.509C2.457,2.091 2.559,2.724 2.658,3.344C2.769,4.039 3.014,4.28 3.755,4.296C4.447,4.31 4.667,4.142 4.732,3.396C4.848,2.082 4.817,0.778 4.145,-0.66M5.395,4.155C7.48,4.213 9.466,4.333 11.45,4.307C13.798,4.278 16.148,3.991 18.492,4.054C22.12,4.151 25.732,3.898 29.352,3.82C30.398,3.798 30.777,3.445 30.605,2.419C30.442,1.445 30.126,0.491 29.818,-0.453C29.599,-1.121 29.081,-1.478 28.362,-1.495C27.249,-1.52 26.133,-1.579 25.021,-1.55C23.468,-1.509 21.917,-1.409 20.366,-1.319C15.753,-1.049 11.142,-0.772 6.53,-0.496C6.251,-0.48 5.975,-0.436 5.696,-0.424C5.252,-0.405 5.145,-0.149 5.258,0.221C5.642,1.471 5.497,2.742 5.395,4.155M2.884,4.997C1.728,4.402 0.559,3.831 -0.577,3.199C-1.059,2.931 -1.085,2.701 -0.715,2.384C0.489,1.349 1.706,0.326 2.961,-0.645C3.283,-0.893 3.762,-1.025 4.178,-1.048C7.558,-1.24 10.941,-1.393 14.323,-1.558C14.522,-1.568 14.721,-1.585 14.92,-1.599C18.138,-1.827 21.354,-2.084 24.575,-2.267C25.924,-2.344 27.281,-2.274 28.634,-2.253C29.231,-2.243 29.735,-1.966 30.041,-1.468C30.372,-0.93 30.681,-0.358 30.871,0.241C31.11,0.998 31.249,1.791 31.376,2.578C31.534,3.549 31.103,4.2 30.135,4.435C29.676,4.547 29.188,4.553 28.712,4.575C26.763,4.665 24.807,4.884 22.865,4.797C18.674,4.611 14.507,5.106 10.325,5.078C8.177,5.063 6.029,5.056 3.881,5.033C3.565,5.029 3.25,4.954 2.935,4.913C2.918,4.941 2.901,4.969 2.884,4.997" style="fill:rgb(35,31,32);fill-rule:nonzero;"/>
            </g>
        </g>
        <g transform="matrix(5.55556,0,0,5.55556,7263.77,9566.93)">
            <g transform="matrix(1,0,0,1,199.716,407.382)">
                <path d="M0,5.556C0.102,4.143 0.247,2.872 -0.136,1.622C-0.25,1.252 -0.142,0.996 0.302,0.977C0.58,0.965 0.857,0.921 1.135,0.905C5.747,0.629 10.359,0.352 14.971,0.082C16.522,-0.008 18.074,-0.108 19.626,-0.149C20.739,-0.178 21.854,-0.119 22.968,-0.094C23.686,-0.077 24.205,0.28 24.423,0.948C24.732,1.891 25.048,2.846 25.211,3.82C25.383,4.846 25.003,5.199 23.957,5.221C20.337,5.299 16.725,5.552 13.097,5.454C10.754,5.391 8.404,5.679 6.056,5.708C4.072,5.734 2.086,5.614 0,5.556" style="fill:rgb(19,117,188);fill-rule:nonzero;"/>
            </g>
        </g>
        <g transform="matrix(5.55556,0,0,5.55556,7263.77,9566.93)">
            <g transform="matrix(1,0,0,1,198.466,413.094)">
                <path d="M0,-4.971C0.672,-3.533 0.703,-2.228 0.587,-0.914C0.521,-0.168 0.302,0 -0.39,-0.015C-1.131,-0.031 -1.376,-0.271 -1.487,-0.967C-1.586,-1.587 -1.688,-2.22 -1.907,-2.802C-2.061,-3.211 -2.051,-3.483 -1.714,-3.732C-1.179,-4.127 -0.636,-4.512 0,-4.971" style="fill:rgb(255,229,166);fill-rule:nonzero;"/>
            </g>
        </g>
        <g transform="matrix(5.55556,0,0,5.55556,7263.77,9566.93)">
            <g transform="matrix(1,0,0,1,194.321,411.014)">
                <path d="M0,0.531C0.333,0.226 0.55,0.001 0.794,-0.191C1.447,-0.705 1.617,-0.654 1.825,0.111C1.877,0.299 1.91,0.499 1.91,0.693C1.91,1.034 1.741,1.236 1.385,1.109C0.948,0.952 0.526,0.753 0,0.531" style="fill:rgb(19,117,188);fill-rule:nonzero;"/>
            </g>
        </g>
        <g transform="matrix(5.55556,0,0,5.55556,7263.77,9566.93)">
            <g transform="matrix(1,0,0,1,224.186,409.447)">
                <path d="M0,2.814C-3.268,2.817 -6.536,2.453 -9.722,1.729C-9.296,1.86 -8.837,1.773 -8.4,1.687C-6.401,1.289 -4.395,0.915 -2.4,0.491C-1.719,0.347 -1.098,-0.003 -0.521,0.499C-0.292,0.699 0.023,2.814 0,2.814" style="fill:white;fill-rule:nonzero;"/>
            </g>
        </g>
    </g>
</svg>
